.local/share/icons/Gruvbox-Plus-Dark/panel/22/indicator-notification-unread-dnd.svg

<svg xmlns="http://www.w3.org/2000/svg" width="22" height="22" version="1.1">
 <defs>
  <style id="current-color-scheme" type="text/css">
   .ColorScheme-Text { color:#ebdbb2; } .ColorScheme-Highlight { color:#458588; }
  </style>
 </defs>
 <path style="fill:currentColor" class="ColorScheme-Text" d="M 16.435547 3 A 1.0000948 0.99972028 0 0 0 16.275391 3.0195312 L 5.9765625 5.1894531 A 1.0000948 0.99972028 0 0 0 5.9472656 5.1992188 C 4.5107246 5.5456889 3.4983223 6.6303201 2.8164062 7.8769531 C 2.1344902 9.1234861 1.7241851 10.586308 1.4550781 12.013672 C 1.2780766 12.952436 1.1822107 13.838863 1.1132812 14.669922 A 3 3 0 0 1 3 14 A 3 3 0 0 1 3.1816406 14.009766 C 3.4580086 11.390232 4.1610323 7.9960938 5.9726562 7.9960938 C 8.9200092 7.9960938 9 16.992188 9 16.992188 L 6 16.992188 A 3 3 0 0 1 6 17 A 3 3 0 0 1 5.2871094 18.943359 L 11.078125 19 A 1.0000948 0.99972028 0 0 0 11.298828 18.978516 L 21.191406 16.849609 A 1.0000948 0.99972028 0 0 0 21.980469 15.919922 C 21.980469 15.919922 22.128042 12.946857 21.611328 9.8789062 C 21.352971 8.3449692 20.93849 6.7745224 20.177734 5.4746094 C 19.416979 4.1746964 18.181579 3.0986784 16.537109 3.0078125 A 1.0000948 0.99972028 0 0 0 16.435547 3.0078125 L 16.435547 3 z M 16.486328 5.0195312 C 17.328821 5.0895053 17.909406 5.5489562 18.451172 6.4746094 C 19.007797 7.4257531 19.403272 8.8054487 19.638672 10.203125 C 20.046607 12.625117 19.95382 14.459887 19.935547 15.068359 L 11.275391 16.929688 C 11.268691 14.427173 10.967762 8.4104652 8.0625 6.7929688 L 16.486328 5.0195312 z M 17.699219 9.9960938 L 13.082031 11.175781 L 13 11.289062 L 13.066406 12.677734 L 13.207031 12.716797 L 16.601562 11.816406 L 16.677734 12.978516 L 16.775391 12.994141 L 17.925781 12.597656 L 18 12.533203 L 17.789062 10.076172 L 17.699219 9.9960938 z M 6 10.994141 A 1 0.99962552 0 0 0 5 11.994141 A 1 0.99962552 0 0 0 5.3164062 12.722656 L 4.6738281 14.511719 A 3 3 0 0 1 5.2226562 14.990234 L 7.5 14.978516 L 6.7011719 12.707031 A 1 0.99962552 0 0 0 7 11.994141 A 1 0.99962552 0 0 0 6 10.994141 z"/>
 <circle style="fill:currentColor" class="ColorScheme-Highlight" cx="3" cy="17" r="2"/>
</svg>

<svg width="22" height="22" version="1.1" xmlns="http://www.w3.org/2000/svg">
  <defs>
    <style id="current-color-scheme" type="text/css">.ColorScheme-Text { color:#ebdbb2; } .ColorScheme-Highlight { color:#458588; } .ColorScheme-NeutralText { color:#fe8019; } .ColorScheme-PositiveText { color:#689d6a; } .ColorScheme-NegativeText { color:#fb4934; }</style>
  </defs>
  <path class="ColorScheme-Text" d="m16.44 3a1 0.9997 0 0 0-0.1602 0.01953l-10.3 2.17a1 0.9997 0 0 0-0.0293 0.009766c-1.437 0.3465-2.449 1.431-3.131 2.678-0.6819 1.247-1.092 2.709-1.361 4.137-0.177 0.9388-0.2729 1.825-0.3418 2.656a3 3 0 0 1 1.887-0.6699 3 3 0 0 1 0.1816 0.009766c0.2764-2.62 0.9794-6.014 2.791-6.014 2.947 0 3.027 8.996 3.027 8.996h-3a3 3 0 0 1 0 0.007812 3 3 0 0 1-0.7129 1.943l5.791 0.05664a1 0.9997 0 0 0 0.2207-0.02148l9.893-2.129a1 0.9997 0 0 0 0.7891-0.9297s0.1476-2.973-0.3691-6.041c-0.2584-1.534-0.6728-3.104-1.434-4.404-0.7608-1.3-1.996-2.376-3.641-2.467a1 0.9997 0 0 0-0.1016 0v-0.007812zm0.05078 2.02c0.8425 0.06997 1.423 0.5294 1.965 1.455 0.5566 0.9511 0.9521 2.331 1.188 3.729 0.4079 2.422 0.3151 4.257 0.2969 4.865l-8.66 1.861c-0.0067-2.503-0.3076-8.519-3.213-10.14l8.424-1.773zm1.213 4.977-4.617 1.18-0.08203 0.1133 0.06641 1.389 0.1406 0.03906 3.395-0.9004 0.07617 1.162 0.09766 0.01562 1.15-0.3965 0.07422-0.06445-0.2109-2.457-0.08984-0.08008zm-11.7 0.998a1 0.9996 0 0 0-1 1 1 0.9996 0 0 0 0.3164 0.7285l-0.6426 1.789a3 3 0 0 1 0.5488 0.4785l2.277-0.01172-0.7988-2.271a1 0.9996 0 0 0 0.2988-0.7129 1 0.9996 0 0 0-1-1z" fill="currentColor"/>
  <circle class="ColorScheme-Highlight" cx="3" cy="17" r="2" fill="currentColor"/>
</svg>
